X: 1
T: Sliabh Bloom March, The
Z: ceolachan
S: https://thesession.org/tunes/12829#setting21890
R: barndance
M: 4/4
L: 1/8
K: Gmaj
|: G,2 B,D GBdg | bgdB cBAG | FDFA d2 fg | agfe dcBA |
G,2 B,D GBdg | bgdB cBAG | FDFA dDEF | G2 GF G4 :|[2 G2 G2 G2 ||
|: ga |bgaf gdBc | dcBA G2 ab | c'abg agfg | agfe d2 ga |
bgaf gdBc | dcBA G2 AB | cAFA D2 EF |[1 G2 G2 G2 :|[2 G2 GF G4 |]
